!!!COM: Palestrina, Giovanni Perluigi da
!!!OPR: Missa Ascendo ad Patrem
!!!OMD: Sanctus
!!!OTL: Hosanna
**kern	**kern	**kern	**kern	**kern
*Ibass	*Itenor	*Itenor	*Icalto	*Icant
!Bassus	!Tenor 2	!Tenor 1	!Altus	!Cantus
*clefF4	*clefGv2	*clefGv2	*clefG2	*clefG2
*k[]	*k[]	*k[]	*k[]	*k[]
*C:ion	*C:ion	*C:ion	*C:ion	*C:ion
*M3/2	*M3/2	*M3/2	*M3/2	*M3/2
=39	=39	=39	=39	=39
2r	2r	2c	2e	1r
2c	2e	2g	2cc	.
2F	2f	2a	2cc	2r
=40	=40	=40	=40	=40
1c	2e	2g	1.cc	2r
.	2g	2c	.	2ee
2r	2a	2F	.	2ff
=41	=41	=41	=41	=41
1r	2.g	1c	1cc	2.ee
.	4g	.	.	4ee
2r	2f	2r	2a	2dd
=42	=42	=42	=42	=42
1r	2.e	1r	2.g	2.cc
.	8d	.	8f	8b
.	8c	.	8e	8a
2r	2d	2r	2f	2b
=43	=43	=43	=43	=43
2r	2c	2r	2g	2cc
2c	2g	2e	2cc	2r
2d	2f	2f	2b	2r
=44	=44	=44	=44	=44
2.c	2.e	2.g	2cc	1r
.	.	.	2r	.
4c	4e	4a	.	.
2B-	2d	2g	2g	2r
=45	=45	=45	=45	=45
2.A	2.c	2f	1a	1r
.	.	4e	.	.
8G	4d	4f	.	.
8F	.	.	.	.
2G	2B-	4d	2b-	2r
.	.	4e	.	.
=46	=46	=46	=46	=46
2F	2c	2f	2a	2r
2C	2c	2e	2g	2ee
2F	2A	2a	2c	2ff
=47	=47	=47	=47	=47
2.C	2.c	2.g	2.e	2.ee
4C	4c	4g	4e	4ee
2D	2A	2f	2f	2dd
=48	=48	=48	=48	=48
2E	1.G	2.e	1.g	2.cc
1G	.	.	.	.
.	.	8d	.	8b
.	.	8c	.	8a
.	.	2d	.	2b
=49	=49	=49	=49	=49
1.C	1.G	1.c	1.e	1.cc
==	==	==	==	==
*-	*-	*-	*-	*-
!!!CDT: 1525/^1526/-1594/2/2
!!!OCY: Italia
!!!AGN: Mass (Parody)
!!!AST: renaissance, vocal
!!!ASW: Motet 1572 (Palestrina)
!!!PWK: Masses, Book 12
!!!RNB: Cadence finals: G,D
!!!YOR: Le Opere Complete, v. 29, p. 54
!!!YOO: Rome, Italy: Fratelli Scalera
!!!END: 1992//
!!!EED: John Miller
!!!YEC: Copyright 2000, John Miller
!!!YEN: United States of America
!!!YEM: Rights to all derivative electronic formats reserved.
!!!YEM: Refer to licensing agreement for further details.
!!!YEM: This file must be accompanied by the licensing agreement.
!!!YEM: A copy of the licensing agreement may be found at http://www.music-cog.ohio-state.edu/HumdrumDatabases/Palestrina/license.txt
!!!EMD: converted to Humdrum by Bret Aarden
